www/assets/icons/rocket.svg

<svg xmlns="http://www.w3.org/2000/svg" width="24" height="24" viewBox="0 0 24 24" fill='currentColor'><path d="M12 2.25s4.5 2.04 4.5 10.5c0 2.49-1.04 5.57-1.6 7H9.1c-.56-1.43-1.6-4.51-1.6-7 0-8.46 4.5-10.5 4.5-10.5m2 8.5c0-1.1-.9-2-2-2s-2 .9-2 2 .9 2 2 2 2-.9 2-2m-6.31 9.52c-.48-1.23-1.52-4.17-1.67-6.87l-1.13.75c-.56.38-.89 1-.89 1.67v5.93zM20 21.75v-5.93c0-.67-.33-1.29-.89-1.66l-1.13-.75c-.15 2.69-1.2 5.64-1.67 6.87z"/></svg>

<svg width="24" height="24" viewBox="0 0 24 24" xmlns="http://www.w3.org/2000/svg" fill='currentColor'><path d="M12 2.25C12 2.25 16.5 4.29 16.5 12.75C16.5 15.24 15.46 18.32 14.9 19.75H9.1C8.54 18.32 7.5 15.24 7.5 12.75C7.5 4.29 12 2.25 12 2.25ZM14 10.75C14 9.65 13.1 8.75 12 8.75C10.9 8.75 10 9.65 10 10.75C10 11.85 10.9 12.75 12 12.75C13.1 12.75 14 11.85 14 10.75ZM7.69 20.27C7.21 19.04 6.17 16.1 6.02 13.4L4.89 14.15C4.33 14.53 4 15.15 4 15.82V21.75L7.69 20.27ZM20 21.75V15.82C20 15.15 19.67 14.53 19.11 14.16L17.98 13.41C17.83 16.1 16.78 19.05 16.31 20.28L20 21.75Z"/></svg>
